X:1
T:Title
%%score [ ( 1 2 ) ( 3 4 ) ] { ( 5 6 ) | 7 }
L:1/8
Q:1/4=120
M:4/4
K:D
V:1 treble nm="Midi_74"
V:2 treble 
V:3 bass nm="Midi_74"
V:4 bass 
V:5 treble nm="Org."
V:6 treble 
V:7 bass 
V:1
 F8 | B4 B4 |{B} ^A8 || B8 | (F2 ^G2) (A2 B2) | E4 ^G4 | A8 || A8 | d4 d4 |{d} c8 || e8 | %11
 (B2 c2) ((d2 e2)) |"^William Henry Havergal\n(1793-1870)" A4 c4 | d8 |] %14
V:2
 D8 | (D2 E2) (F2 E2) | (D4 C4) || D8 | D4 (E2 D2) | C4 D4 | C8 || A8 | (F2 G2) (A2 G2) | %9
 (F4 E4) || G8 | G4 (F2 E2) | F4 (A2 G2) | F8 |] %14
V:3
 A,8 | (B,2 A,G,) (F,2 G,2) | F,8 || F,8 | (B,2 D2) (C2 B,2) | A,4 B,4 | A,8 || D8 | D4 (DC B,2) | %9
 A,8 || B,8 | (B,2 G,2) (A,2 B,2) | (A,4 [A,E]4) | [A,D]8 |] %14
V:4
 D,8 | (B,,2 C,2) (D,2 E,2) | F,8 || B,,8 | (D,2 B,,2) (C,2 D,2) | E,4 E,4 | A,,8 || F,8 | %8
 (D,2 E,2) (F,2 G,2) | A,8 || E,8 | (G,2 E,2) (F,2 G,2) | A,4 A,4 | D,8 |] %14
V:5
 F8 | B4 B4 |{B} ^A8 || B8 | F2 ^G2 A2 B2 | E4 ^G4 | A8 || A8 | d4 d4 |{d} c8 || [Be]8 | %11
 B2 c2 d2 e2 | A4 [Ec]4 | [Dd]8 |] %14
V:6
 [A,D]8 | D2 E2 F2 E2 | D4 C4 || D8 | D4 E2 D2 | C4 [B,D]4 | [A,C]8 || [DA]8 | F2 G2 A2 G2 | %9
 F4 E4 || G8 | G4 A2 G2 | F4 A2 G2 | F8 |] %14
V:7
 D,8 | B,,2 C,2 D,2 E,2 | F,8 || B,,8 | D,2 B,,2 C,2 D,2 | E,4 E,4 | A,,8 || F,8 | %8
 D,2 E,2 F,2 G,2 | A,8 || E,8 | G,2 E,2 F,2 G,2 | A,4 A,4 | D,8 |] %14

